docs/themes/v2/source/images/new/logo2.svg

<svg fill="none" height="56" viewBox="0 0 140 56" width="140" xmlns="http://www.w3.org/2000/svg"><path d="m0 0v3.83138h27.2507v-3.83138zm31.1116 0v3.83138h38.8337s-3.9667-3.83138-9.2203-3.83138zm46.4516 0v3.83138h23.4938l-1.3945-3.83138zm40.3378 0-1.395 3.83138h23.281v-3.83138zm-117.901 7.45108v3.83142h27.2507v-3.83142zm31.1116.00546v3.82606h43.3398s-.5061-2.94882-1.389-3.82606zm46.4516 0v3.82606h26.0698l-1.291-3.82606zm37.5488 0-1.291 3.82606h25.966v-3.82606zm-107.28082 7.44566v3.8368h11.80162v-3.8368zm31.11182 0v3.8368h11.8015v-3.8368zm23.2804 0v3.8368h11.8016s.7493-2.0262.7493-3.8368zm23.1711 0v3.8368h20.9235l-1.395-3.8368zm27.1465 0-1.4 3.8368h21.028v-3.8368zm-104.70982 7.4566v3.8314h11.80162v-3.8314zm31.11182 0v3.8314h30.1436s2.5217-1.9659 3.325-3.8314zm46.4515 0v3.8314h11.8016v-2.1327l.7493 2.1327h21.6176l.804-2.1327v2.1327h11.802v-3.8314h-22.154l-1.176 3.2452-1.181-3.2452zm-77.56332 7.4511v3.8314h11.80162v-3.8314zm31.11182 0v3.8314h33.4686c-.8034-1.8593-3.325-3.8314-3.325-3.8314zm46.4515 0v3.8314h11.8016v-3.8314zm13.9453 0 1.4272 3.8314h16.209l1.357-3.8314zm21.0272 0v3.8314h11.802v-3.8314zm-112.53582 7.4511v3.8312h11.80162v-3.8312zm31.11182 0v3.8312h11.8015v-3.8312zm23.2804 0v3.8312h12.5507c0-1.8081-.7492-3.8312-.7492-3.8312zm23.1711 0v3.8312h11.8016v-3.8312zm16.6255 0 1.383 3.8312h10.867l1.394-3.8312zm18.347 0v3.8312h11.802v-3.8312zm-120.15378 7.4511v3.8368h27.25068v-3.8368zm30.89838 0v3.8368h41.9508c.8829-.8785 1.389-3.8368 1.389-3.8368zm46.665 0v3.8368h19.4195v-3.8368zm26.9284 0 1.421 3.8368h5.529l1.335-3.8368zm15.662 0v3.8368h19.633v-3.8368zm-120.15378 7.4565v3.8314h27.25068v-3.8314zm30.89838 0v3.8259h29.6134c5.2536 0 9.2203-3.8259 9.2203-3.8259zm46.665 0v3.8314h19.4195v-3.8314zm29.6244 0 1.367 3.8206.235.0053 1.389-3.8259zm12.966 0v3.8314h19.633v-3.8314z" fill="#006ebf"/></svg>

<svg width="140" height="56" viewBox="0 0 140 56" fill="none" xmlns="http://www.w3.org/2000/svg">
<path d="M0 0V3.83138H27.2507V0H0ZM31.1116 0V3.83138H69.9453C69.9453 3.83138 65.9786 0 60.725 0H31.1116ZM77.5632 0V3.83138H101.057L99.6625 0H77.5632ZM117.901 0L116.506 3.83138H139.787V0H117.901ZM0 7.45108V11.2825H27.2507V7.45108H0ZM31.1116 7.45654V11.2826H74.4514C74.4514 11.2826 73.9453 8.33378 73.0624 7.45654H31.1116ZM77.5632 7.45654V11.2826H103.633L102.342 7.45654H77.5632ZM115.112 7.45654L113.821 11.2826H139.787V7.45654H115.112ZM7.83118 14.9022V18.739H19.6328V14.9022H7.83118ZM38.943 14.9022V18.739H50.7445V14.9022H38.943ZM62.2234 14.9022V18.739H74.025C74.025 18.739 74.7743 16.7128 74.7743 14.9022H62.2234ZM85.3945 14.9022V18.739H106.318L104.923 14.9022H85.3945ZM112.541 14.9022L111.141 18.739H132.169V14.9022H112.541ZM7.83118 22.3588V26.1902H19.6328V22.3588H7.83118ZM38.943 22.3588V26.1902H69.0866C69.0866 26.1902 71.6083 24.2243 72.4116 22.3588H38.943ZM85.3945 22.3588V26.1902H97.1961V24.0575L97.9454 26.1902H119.563L120.367 24.0575V26.1902H132.169V22.3588H110.015L108.839 25.604L107.658 22.3588H85.3945ZM7.83118 29.8099V33.6413H19.6328V29.8099H7.83118ZM38.943 29.8099V33.6413H72.4116C71.6082 31.782 69.0866 29.8099 69.0866 29.8099H38.943ZM85.3945 29.8099V33.6413H97.1961V29.8099H85.3945ZM99.3398 29.8099L100.767 33.6413H116.976L118.333 29.8099H99.3398ZM120.367 29.8099V33.6413H132.169V29.8099H120.367ZM7.83118 37.261V41.0922H19.6328V37.261H7.83118ZM38.943 37.261V41.0922H50.7445V37.261H38.943ZM62.2234 37.261V41.0922H74.7741C74.7741 39.2841 74.0249 37.261 74.0249 37.261H62.2234ZM85.3945 37.261V41.0922H97.1961V37.261H85.3945ZM102.02 37.261L103.403 41.0922H114.27L115.664 37.261H102.02ZM120.367 37.261V41.0922H132.169V37.261H120.367ZM0.21322 44.7121V48.5489H27.4639V44.7121H0.21322ZM31.1116 44.7121V48.5489H73.0624C73.9453 47.6704 74.4514 44.7121 74.4514 44.7121H31.1116ZM77.7766 44.7121V48.5489H97.1961V44.7121H77.7766ZM104.705 44.7121L106.126 48.5489H111.655L112.99 44.7121H104.705ZM120.367 44.7121V48.5489H140V44.7121H120.367ZM0.21322 52.1686V56H27.4639V52.1686H0.21322ZM31.1116 52.1686V55.9945H60.725C65.9786 55.9945 69.9453 52.1686 69.9453 52.1686H31.1116ZM77.7766 52.1686V56H97.1961V52.1686H77.7766ZM107.401 52.1686L108.768 55.9892L109.003 55.9945L110.392 52.1686H107.401ZM120.367 52.1686V56H140V52.1686H120.367Z" fill="#006EBF"/>
</svg>
